rospo-icon-theme-classic-common/32x32/places/folder-orange-mail-cloud.svg

<svg height="32" width="32" xmlns="http://www.w3.org/2000/svg"><rect height="16" opacity=".2" rx="1.25" width="25" x="3" y="12"/><path d="m3 21.75c0 .692.5575 1.25 1.25 1.25h22.5c.692 0 1.25-.558 1.25-1.25v-13.5c0-.6925-.558-1.25-1.25-1.25h-12.75v-.75c0-.6925-.557-1.25-1.25-1.25h-8.5c-.6925 0-1.25.5575-1.25 1.25" fill="#dd772f"/><rect height="16" opacity=".2" rx="1.25" width="25" x="3" y="10"/><rect fill="#e4e4e4" height="10" rx="1.25" width="21" x="5" y="9"/><rect fill="#ee923a" height="16" rx="1.25" width="25" x="3" y="11"/><path d="m4.25 5c-.6925 0-1.25.5575-1.25 1.25v1c0-.6925.5575-1.25 1.25-1.25h8.5c.693 0 1.25.5575 1.25 1.25v.75h12.75c.692 0 1.25.5575 1.25 1.25v-1c0-.6925-.558-1.25-1.25-1.25h-12.75v-.75c0-.6925-.557-1.25-1.25-1.25z" fill="#fff" opacity=".1"/><path d="m15.667 15a3.3333 3.6364 0 0 0 -3.155 2.471 2.6667 2.9091 0 0 0 -1.512 2.62 2.6667 2.9091 0 0 0 2.667 2.909 2.6667 2.9091 0 0 0 1.772-.74 3.3333 3.6364 0 0 0  .228.013 3.3333 3.6364 0 0 0 1.409-.346 2.6667 2.9091 0 0 0 1.258.346 2.6667 2.9091 0 0 0 2.666-2.909 2.6667 2.9091 0 0 0 -2.667-2.909 2.6667 2.9091 0 0 0 -.005 0 3.3333 3.6364 0 0 0 -2.662-1.455z" fill="#533314"/></svg>

<svg xmlns="http://www.w3.org/2000/svg" width="32" height="32" version="1">
 <rect style="opacity:0.2" width="25" height="16" x="3" y="12" rx="1.25" ry="1.25"/>
 <path style="fill:#dd772f" d="M 3,21.75 C 3,22.442 3.5575,23 4.25,23 H 26.75 C 27.442,23 28,22.442 28,21.75 V 8.25 C 28,7.5575 27.442,7 26.75,7 H 14 V 6.25 C 14,5.5575 13.443,5 12.75,5 H 4.25 C 3.5575,5 3,5.5575 3,6.25"/>
 <rect style="opacity:0.2" width="25" height="16" x="3" y="10" rx="1.25" ry="1.25"/>
 <rect style="fill:#dcdcdc" width="21" height="10" x="5" y="9" rx="1.25" ry="1.25"/>
 <rect style="fill:#ee923a" width="25" height="16" x="3" y="11" rx="1.25" ry="1.25"/>
 <path style="opacity:0.1;fill:#ffffff" d="M 4.25 5 C 3.5575 5 3 5.5575 3 6.25 L 3 7.25 C 3 6.5575 3.5575 6 4.25 6 L 12.75 6 C 13.443 6 14 6.5575 14 7.25 L 14 8 L 26.75 8 C 27.442 8 28 8.5575 28 9.25 L 28 8.25 C 28 7.5575 27.442 7 26.75 7 L 14 7 L 14 6.25 C 14 5.5575 13.443 5 12.75 5 L 4.25 5 z"/>
 <path style="fill:#533314" d="M 15.667,15 A 3.3333,3.6364 0 0 0 12.512,17.471 2.6667,2.9091 0 0 0 11,20.091 2.6667,2.9091 0 0 0 13.667,23 2.6667,2.9091 0 0 0 15.439,22.26 3.3333,3.6364 0 0 0 15.667,22.273 3.3333,3.6364 0 0 0 17.076,21.927 2.6667,2.9091 0 0 0 18.334,22.273 2.6667,2.9091 0 0 0 21,19.364 2.6667,2.9091 0 0 0 18.333,16.455 2.6667,2.9091 0 0 0 18.328,16.455 3.3333,3.6364 0 0 0 15.666,15 Z"/>
</svg>
